svgs/sharp-regular/chart-scatter.svg

<svg xmlns="http://www.w3.org/2000/svg" viewBox="0 0 512 512"><!--! Font Awesome Pro 6.6.0 by @fontawesome - https://fontawesome.com License - https://fontawesome.com/license (Commercial License) Copyright 2024 Fonticons, Inc. --><path d="M48 56l0-24L0 32 0 56 0 456l0 24 24 0 464 0 24 0 0-48-24 0L48 432 48 56zm176 72l-64 0 0 64 64 0 0-64zM192 288l-64 0 0 64 64 0 0-64zm128-64l-64 0 0 64 64 0 0-64zm32 128l64 0 0-64-64 0 0 64zM448 96l-64 0 0 64 64 0 0-64z"/></svg>

<svg xmlns="http://www.w3.org/2000/svg" viewBox="0 0 512 512"><!--! Font Awesome Pro 6.5.2 by @fontawesome - https://fontawesome.com License - https://fontawesome.com/license (Commercial License) Copyright 2024 Fonticons, Inc. --><path d="M48 56V32H0V56 456v24H24 488h24V432H488 48V56zm176 72H160v64h64V128zM192 288H128v64h64V288zm128-64H256v64h64V224zm32 128h64V288H352v64zM448 96H384v64h64V96z"/></svg>
